icons/stop-24.svg

<svg xmlns="http://www.w3.org/2000/svg" width="24" height="24" viewBox="0 0 24 24"><path d="M12 7a.75.75 0 01.75.75v4.5a.75.75 0 01-1.5 0v-4.5A.75.75 0 0112 7zm0 10a1 1 0 100-2 1 1 0 000 2z"/><path d="M7.328 1.47a.749.749 0 01.53-.22h8.284c.199 0 .389.079.53.22l5.858 5.858c.141.14.22.33.22.53v8.284a.749.749 0 01-.22.53l-5.858 5.858a.749.749 0 01-.53.22H7.858a.749.749 0 01-.53-.22L1.47 16.672a.749.749 0 01-.22-.53V7.858c0-.199.079-.389.22-.53zm.84 1.28L2.75 8.169v7.662l5.419 5.419h7.662l5.419-5.418V8.168L15.832 2.75z"/></svg>

<svg xmlns="http://www.w3.org/2000/svg" width="24" height="24" viewBox="0 0 24 24">
  <defs/>
  <path d="M12,7 A0.75 0.75 0 0 1 12.75,7.75 L12.75,12.25 A0.75 0.75 0 0 1 11.25,12.25 L11.25,7.75 A0.75 0.75 0 0 1 12,7 Z M12,17 A1 1 0 1 0 12,15 A1 1 0 0 0 12,17 Z"/>
  <path d="M7.328,1.47 C7.469,1.329 7.659,1.25 7.858,1.25 L16.142,1.25 C16.341,1.25 16.531,1.329 16.672,1.47 L22.53,7.328 C22.671,7.468 22.75,7.658 22.75,7.858 L22.75,16.142 C22.75,16.341 22.671,16.531 22.53,16.672 L16.672,22.53 C16.531,22.671 16.341,22.75 16.142,22.75 L7.858,22.75 C7.659,22.75 7.469,22.671 7.328,22.53 L1.47,16.672 C1.329,16.531 1.25,16.341 1.25,16.142 L1.25,7.858 C1.25,7.659 1.329,7.469 1.47,7.328 Z M8.168,2.75 L2.75,8.169 L2.75,15.831 L8.169,21.25 L15.831,21.25 L21.25,15.832 L21.25,8.168 L15.832,2.75 Z"/>
</svg>
